src/public/images/logo/lago-logo.svg

<svg width="81" height="24" viewBox="0 0 81 24" fill="none" xmlns="http://www.w3.org/2000/svg">
  <g clip-path="url(#clip0_502_1335)">
    <g clip-path="url(#clip1_502_1335)">
      <path
        d="M70.5855 18.161C69.5599 17.6256 68.7823 16.8393 68.2364 15.8355C67.674 14.8316 67.4093 13.6772 67.4093 12.3722C67.4093 11.0673 67.6905 9.91285 68.2364 8.90901C68.7823 7.90518 69.5764 7.13558 70.5855 6.58347C71.6112 6.04809 72.7857 5.76367 74.1257 5.76367C75.4656 5.76367 76.6402 6.03136 77.6658 6.58347C78.6915 7.13558 79.469 7.90518 80.0149 8.90901C80.5608 9.91285 80.842 11.0673 80.842 12.3722C80.842 13.694 80.5608 14.8484 80.0149 15.8522C79.4524 16.856 78.6749 17.6256 77.6658 18.161C76.6402 18.6964 75.4656 18.9808 74.1257 18.9808C72.7857 18.9808 71.5946 18.7131 70.5855 18.161ZM76.4416 15.0659C77.0041 14.3799 77.3019 13.4765 77.3019 12.389C77.3019 11.2848 77.0206 10.398 76.4416 9.71208C75.8626 9.02613 75.1017 8.67479 74.1257 8.67479C73.1662 8.67479 72.4052 9.02613 71.8262 9.71208C71.2472 10.398 70.966 11.2848 70.966 12.389C70.966 13.4932 71.2472 14.3966 71.8262 15.0659C72.4052 15.7518 73.1662 16.1031 74.1257 16.1031C75.1017 16.1031 75.8626 15.7518 76.4416 15.0659Z"
        fill="#19212E"
      />
      <path
        d="M66.2017 5.93111V18.4456C66.2017 20.1354 65.6393 21.4905 64.5475 22.4944C63.4391 23.4982 61.7186 24.0001 59.3861 24.0001C57.583 24.0001 56.1272 23.5986 55.0188 22.7955C53.9105 21.9924 53.3149 20.8548 53.2322 19.3825H56.7558C56.9212 20.0015 57.2521 20.47 57.7318 20.8046C58.2116 21.1392 58.8567 21.3065 59.6508 21.3065C60.6434 21.3065 61.4209 21.0555 61.9668 20.5536C62.5127 20.0517 62.7939 19.2988 62.7939 18.3285V16.9733C61.8675 18.1611 60.5441 18.7467 58.8567 18.7467C57.7318 18.7467 56.7227 18.479 55.8294 17.9436C54.9361 17.4083 54.2413 16.6554 53.7285 15.6683C53.2157 14.6979 52.9675 13.5435 52.9675 12.2385C52.9675 10.9503 53.2157 9.8126 53.7285 8.82549C54.2248 7.83839 54.9361 7.08551 55.846 6.55014C56.7393 6.01476 57.7649 5.74707 58.8898 5.74707C60.5606 5.74707 61.8841 6.39956 62.8601 7.70455L63.1579 5.93111H66.2017ZM61.9172 14.9154C62.4796 14.2462 62.7608 13.3762 62.7608 12.3054C62.7608 11.218 62.4796 10.3312 61.9172 9.64529C61.3547 8.95934 60.5937 8.62473 59.6508 8.62473C58.7079 8.62473 57.9469 8.95934 57.3844 9.64529C56.8054 10.3145 56.5242 11.2012 56.5242 12.2887C56.5242 13.3762 56.8054 14.2629 57.3844 14.9321C57.9634 15.6014 58.7079 15.936 59.6508 15.936C60.5937 15.9192 61.3547 15.5846 61.9172 14.9154Z"
        fill="#19212E"
      />
      <path
        d="M51.7598 5.93124V18.8305H48.6498L48.352 17.0236C47.3429 18.3118 46.0195 18.9476 44.3818 18.9476C43.2569 18.9476 42.2478 18.6799 41.3544 18.1445C40.4611 17.6092 39.7663 16.8396 39.2535 15.8357C38.7407 14.8319 38.4926 13.6775 38.4926 12.339C38.4926 11.0341 38.7407 9.87964 39.2535 8.87581C39.7498 7.87198 40.4611 7.10237 41.371 6.55027C42.2643 6.01489 43.2899 5.73047 44.4149 5.73047C45.2751 5.73047 46.036 5.89777 46.6978 6.23239C47.3595 6.567 47.9054 7.03545 48.3355 7.60429L48.6829 5.89777H51.7598V5.93124ZM47.4753 15.0828C48.0377 14.4136 48.3189 13.5102 48.3189 12.406C48.3189 11.285 48.0377 10.3816 47.4753 9.69561C46.9128 9.00966 46.1518 8.65831 45.2089 8.65831C44.266 8.65831 43.505 9.00966 42.9426 9.69561C42.3636 10.3816 42.0823 11.285 42.0823 12.406C42.0823 13.5102 42.3636 14.3969 42.9426 15.0828C43.5215 15.7688 44.266 16.1034 45.2089 16.1034C46.1518 16.1034 46.9128 15.7521 47.4753 15.0828Z"
        fill="#19212E"
      />
      <path d="M27.7894 18.8303V1.26318H31.5115V15.6013H38.4099V18.8303H27.7894Z" fill="#19212E" />
    </g>
    <g clip-path="url(#clip2_502_1335)">
      <path
        d="M20.0842 11.6933C19.7594 13.8046 18.785 15.7174 17.2511 17.2512C15.7173 18.7851 13.8045 19.7595 11.6933 20.0843C11.6933 20.0663 11.6752 20.0482 11.6752 20.0302V20.0121C11.6572 19.976 11.6572 19.958 11.6391 19.9039C11.6211 19.8497 11.603 19.7956 11.585 19.7414C11.4948 19.4888 11.4406 19.2001 11.3865 18.9114V18.8933C11.3865 18.8572 11.3684 18.8211 11.3684 18.7851V18.767C11.3684 18.7309 11.3504 18.6948 11.3504 18.6768V18.6407C11.3504 18.6046 11.3324 18.5685 11.3324 18.5144C11.3143 18.4242 11.3143 18.3339 11.3143 18.2257V18.1896C11.3143 18.1715 11.3143 18.1535 11.3143 18.1354V18.0993C11.3143 17.9911 11.2963 17.8828 11.2963 17.7565C11.2963 14.1836 14.2196 11.2603 17.7925 11.2603C17.9008 11.2603 18.0271 11.2603 18.1354 11.2603H18.1714C18.1895 11.2603 18.2075 11.2603 18.2256 11.2603H18.2617C18.3519 11.2603 18.4602 11.2783 18.5504 11.2963C18.5865 11.2963 18.6406 11.2963 18.6948 11.3144C18.7308 11.3144 18.7669 11.3324 18.785 11.3324H18.803C18.8391 11.3324 18.8752 11.3324 18.9113 11.3505H18.9293C19.2181 11.4046 19.4887 11.4768 19.7775 11.567C19.8316 11.5851 19.8857 11.6031 19.9399 11.6212C19.976 11.6392 19.994 11.6392 20.0301 11.6572H20.0481C20.0481 11.6753 20.0662 11.6933 20.0842 11.6933Z"
        fill="#FF7E1D"
      />
      <path
        opacity="0.6"
        d="M20.2105 10.2135H20.1925C20.0301 10.1594 19.8677 10.1233 19.7053 10.0692C19.6872 10.0692 19.6692 10.0511 19.6331 10.0511C19.4887 10.015 19.3444 9.97894 19.182 9.96089C19.182 9.96089 19.182 9.96089 19.1639 9.96089C19.1278 9.96089 19.0737 9.94284 19.0376 9.94284H19.0015C18.9474 9.94284 18.8933 9.9248 18.8572 9.9248C18.803 9.9248 18.7308 9.90676 18.6948 9.90676C18.5865 9.88871 18.4602 9.88871 18.3519 9.87067C18.3158 9.87067 18.2797 9.87067 18.2436 9.87067H18.1534C18.0271 9.87067 17.9008 9.87067 17.7564 9.87067C13.3715 9.87067 9.81657 13.4255 9.81657 17.8105C9.81657 17.9368 9.81657 18.0631 9.83461 18.2075V18.2977C9.83461 18.3338 9.83461 18.3699 9.85266 18.406C9.8707 18.5143 9.8707 18.6406 9.88875 18.7489C9.88875 18.803 9.90679 18.8571 9.90679 18.9113C9.90679 18.9654 9.92484 19.0195 9.92484 19.0556C9.94288 19.1278 9.94288 19.1819 9.96093 19.2361C10.0151 19.5789 10.1053 19.9218 10.2136 20.2646C10.2136 20.2646 10.2136 20.2646 10.2136 20.2827C7.97597 20.3188 5.84665 19.615 4.06018 18.2797C4.06018 18.2436 4.06018 18.2075 4.06018 18.1895C4.06018 18.0812 4.06018 17.9549 4.06018 17.8466C4.06018 10.2857 10.2136 4.13232 17.7745 4.13232C17.8827 4.13232 18.009 4.13232 18.1173 4.13232C18.1534 4.13232 18.1895 4.13232 18.2075 4.13232C19.5429 5.82856 20.2286 7.97593 20.2105 10.2135Z"
        fill="#FF7E1D"
      />
      <path
        opacity="0.3"
        d="M16.9082 2.61654C16.836 2.61654 16.7458 2.63458 16.6736 2.63458C16.5473 2.63458 16.4391 2.65263 16.3127 2.67067C16.2767 2.67067 16.2225 2.67067 16.1864 2.68872C16.1503 2.68872 16.1323 2.68872 16.0962 2.70676C15.8797 2.72481 15.6631 2.7609 15.4466 2.79699C15.2842 2.81504 15.1398 2.85113 14.9774 2.86917C14.8872 2.88722 14.7789 2.90526 14.6887 2.92331C14.5804 2.94135 14.4721 2.97744 14.3458 2.99549C14.3097 3.01353 14.2556 3.01353 14.2195 3.03158C14.1473 3.04962 14.0571 3.06767 13.9849 3.08571C13.9488 3.08571 13.9308 3.10376 13.8947 3.10376C13.8045 3.1218 13.7142 3.13985 13.6421 3.17594C13.606 3.19398 13.5518 3.19398 13.5158 3.21203C13.4436 3.23007 13.3894 3.24812 13.3173 3.26616C13.2631 3.28421 13.209 3.30225 13.1729 3.3203C13.0827 3.33834 13.0105 3.37443 12.9383 3.39248C12.9203 3.39248 12.9022 3.41052 12.8842 3.41052C12.7759 3.44661 12.6676 3.4827 12.5594 3.53684C12.433 3.57293 12.3248 3.62706 12.2165 3.66315C12.1443 3.6812 12.0721 3.71729 12.018 3.75338C11.9458 3.77143 11.8917 3.80752 11.8195 3.82556C11.7112 3.8797 11.5849 3.91579 11.4767 3.96992C11.2782 4.06015 11.0797 4.15037 10.8812 4.25864C10.6285 4.38496 10.3939 4.51127 10.1413 4.65563C10.0691 4.70977 9.97891 4.74586 9.90673 4.8C9.81651 4.85413 9.72628 4.90827 9.61801 4.98045C9.52778 5.03458 9.43756 5.08872 9.36538 5.14285C9.2932 5.19699 9.20297 5.25112 9.13079 5.30526C9.05861 5.35939 8.98643 5.41353 8.91425 5.46766C8.7338 5.59398 8.57139 5.7203 8.40899 5.84661C8.33681 5.90075 8.28267 5.95488 8.21049 6.00902C8.10222 6.09924 7.97591 6.20751 7.86764 6.29774C7.77741 6.36992 7.68718 6.46014 7.59696 6.53232C7.52478 6.58646 7.47064 6.65864 7.39846 6.71278C7.18192 6.92932 6.96538 7.12781 6.74884 7.3624C6.67666 7.43458 6.62252 7.48872 6.56839 7.5609C6.47816 7.65112 6.40598 7.74135 6.3338 7.83157C6.22553 7.93984 6.13531 8.06616 6.04508 8.17443C5.99095 8.24661 5.93681 8.30074 5.88268 8.37292C5.75636 8.53533 5.63004 8.71578 5.50373 8.87819C5.44959 8.95037 5.39546 9.02255 5.34132 9.09473C5.28719 9.16691 5.23305 9.25713 5.17892 9.32932C5.12478 9.41954 5.07065 9.49172 5.01651 9.58195C4.96238 9.67217 4.8902 9.7624 4.83606 9.87067C4.78192 9.94285 4.74583 10.0331 4.6917 10.1053C4.54734 10.3398 4.42102 10.5925 4.29471 10.8271C4.18644 11.0256 4.09621 11.224 4.00599 11.4225C3.95185 11.5308 3.89772 11.6391 3.86162 11.7654C3.84358 11.8195 3.80749 11.8917 3.78944 11.9639C3.75335 12.0361 3.73531 12.1083 3.69922 12.1624C3.64508 12.2707 3.60899 12.397 3.5729 12.5053C3.53681 12.6135 3.50072 12.7218 3.44659 12.8301C3.44659 12.8481 3.42854 12.8662 3.42854 12.8842C3.39245 12.9564 3.37441 13.0466 3.35636 13.1188C3.33832 13.1729 3.32027 13.2271 3.30223 13.2631C3.28418 13.3353 3.26614 13.3895 3.24809 13.4616C3.23005 13.4977 3.23005 13.5519 3.212 13.588C3.19396 13.6782 3.15787 13.7684 3.13982 13.8406C3.13982 13.8586 3.12178 13.8947 3.12178 13.9308C3.10373 14.003 3.08569 14.0932 3.06764 14.1654C3.06764 14.2015 3.0496 14.2376 3.03155 14.2917C3.01351 14.4 2.97742 14.5083 2.95937 14.6346C2.94132 14.7248 2.92328 14.815 2.90524 14.9233C2.86914 15.0857 2.8511 15.2301 2.83305 15.3925C2.79696 15.609 2.77892 15.8255 2.74283 16.0421C2.74283 16.0782 2.74283 16.0962 2.72478 16.1323C2.72478 16.1684 2.72478 16.2045 2.70674 16.2586C2.68869 16.3849 2.68869 16.4932 2.67065 16.6195C2.67065 16.6917 2.6526 16.7819 2.6526 16.8541C0.956364 15.0677 0.0360644 12.7218 -2.57459e-05 10.2316C-0.0361159 7.57894 0.956364 5.05263 2.77892 3.13985C2.83305 3.06767 2.90523 3.01353 2.95937 2.9594C3.01351 2.90526 3.08569 2.83308 3.13982 2.77894C5.03456 0.99248 7.50673 0 10.1052 0H10.2315C12.7218 0.0360902 15.0676 0.95639 16.9082 2.61654Z"
        fill="#FF7E1D"
      />
    </g>
  </g>
  <defs>
    <clipPath id="clip0_502_1335">
      <rect width="80.842" height="24" fill="white" />
    </clipPath>
    <clipPath id="clip1_502_1335">
      <rect width="53.0526" height="22.7368" fill="white" transform="translate(27.7894 1.26318)" />
    </clipPath>
    <clipPath id="clip2_502_1335">
      <rect width="20.2105" height="20.2105" fill="white" />
    </clipPath>
  </defs>
</svg>

<svg xmlns="http://www.w3.org/2000/svg" fill="none" viewBox="0 0 81 24"><g clip-path="url(#a)"><g fill="#19212E" clip-path="url(#b)"><path d="M70.585 18.161a5.558 5.558 0 0 1-2.348-2.326c-.563-1.003-.828-2.158-.828-3.463 0-1.305.282-2.46.828-3.463.545-1.004 1.34-1.773 2.349-2.326 1.025-.535 2.2-.82 3.54-.82 1.34 0 2.514.268 3.54.82a5.654 5.654 0 0 1 2.349 2.326c.546 1.004.827 2.158.827 3.463 0 1.322-.281 2.476-.827 3.48a5.709 5.709 0 0 1-2.35 2.309c-1.025.535-2.2.82-3.54.82-1.34 0-2.53-.268-3.54-.82Zm5.857-3.095c.562-.686.86-1.59.86-2.677 0-1.104-.281-1.991-.86-2.677-.58-.686-1.34-1.037-2.316-1.037-.96 0-1.72.351-2.3 1.037-.579.686-.86 1.573-.86 2.677s.281 2.008.86 2.677c.58.686 1.34 1.037 2.3 1.037.976 0 1.737-.351 2.316-1.037ZM66.202 5.931v12.514c0 1.69-.563 3.045-1.654 4.05C63.438 23.497 61.718 24 59.386 24c-1.803 0-3.259-.401-4.367-1.205-1.108-.803-1.704-1.94-1.787-3.413h3.524c.165.62.496 1.088.976 1.422.48.335 1.125.502 1.919.502.992 0 1.77-.25 2.316-.753.546-.501.827-1.254.827-2.225v-1.355c-.926 1.188-2.25 1.774-3.937 1.774-1.125 0-2.134-.268-3.028-.803-.893-.536-1.588-1.289-2.1-2.276-.513-.97-.761-2.125-.761-3.43 0-1.288.248-2.426.76-3.413a5.389 5.389 0 0 1 2.118-2.275c.893-.535 1.919-.803 3.044-.803 1.67 0 2.994.652 3.97 1.957l.298-1.773h3.044Zm-4.285 8.984c.563-.669.844-1.539.844-2.61 0-1.087-.281-1.974-.844-2.66-.562-.686-1.323-1.02-2.266-1.02-.943 0-1.704.334-2.267 1.02-.579.67-.86 1.556-.86 2.644 0 1.087.281 1.974.86 2.643.58.67 1.324 1.004 2.267 1.004.943-.017 1.704-.351 2.266-1.02ZM51.76 5.931v12.9h-3.11l-.298-1.808c-1.009 1.289-2.332 1.924-3.97 1.924-1.125 0-2.134-.267-3.027-.803-.894-.535-1.589-1.305-2.101-2.308-.513-1.004-.761-2.159-.761-3.497 0-1.305.248-2.46.76-3.463a5.52 5.52 0 0 1 2.118-2.326c.893-.535 1.919-.82 3.044-.82.86 0 1.621.168 2.283.502a4.696 4.696 0 0 1 1.638 1.372l.347-1.706h3.077v.033Zm-4.285 9.152c.563-.67.844-1.573.844-2.677 0-1.121-.281-2.025-.844-2.71-.562-.687-1.323-1.038-2.266-1.038-.943 0-1.704.351-2.266 1.037-.58.686-.86 1.59-.86 2.71 0 1.105.28 1.992.86 2.678.579.686 1.323 1.02 2.266 1.02.943 0 1.704-.351 2.266-1.02ZM27.79 18.83V1.263h3.722v14.338h6.898v3.23H27.79Z"/></g><g clip-path="url(#c)"><g fill="#19212E" clip-path="url(#d)"><path d="M20.084 11.693a9.936 9.936 0 0 1-2.833 5.558 9.936 9.936 0 0 1-5.558 2.833c0-.018-.018-.036-.018-.054v-.018c-.018-.036-.018-.054-.036-.108a77.22 77.22 0 0 1-.054-.163c-.09-.252-.144-.541-.199-.83v-.018c0-.036-.018-.072-.018-.108v-.018c0-.036-.018-.072-.018-.09v-.036c0-.036-.018-.073-.018-.127-.018-.09-.018-.18-.018-.288v-.127c0-.108-.018-.216-.018-.343 0-3.573 2.924-6.496 6.497-6.496h.469c.09 0 .198.018.288.036.037 0 .09 0 .145.018.036 0 .072.018.09.018h.018c.036 0 .072 0 .108.018h.018c.289.055.56.127.848.217l.163.054c.036.018.054.018.09.036h.018c0 .018.018.036.036.036Z"/><path d="M20.21 10.213h-.018c-.162-.054-.324-.09-.487-.144-.018 0-.036-.018-.072-.018a3.327 3.327 0 0 0-.451-.09h-.018c-.036 0-.09-.018-.126-.018H19c-.054 0-.108-.018-.144-.018-.054 0-.126-.018-.162-.018-.108-.018-.235-.018-.343-.036H17.756a7.94 7.94 0 0 0-7.94 7.94c0 .126 0 .252.019.396v.09c0 .037 0 .073.018.109.018.108.018.235.036.343 0 .054.018.108.018.162 0 .054.018.108.018.145.018.072.018.126.036.18.054.343.144.686.252 1.029v.018A9.94 9.94 0 0 1 4.06 18.28V17.847c0-7.561 6.154-13.715 13.714-13.715H18.207c1.336 1.697 2.022 3.844 2.003 6.082Z" opacity=".6"/><path d="M16.908 2.617c-.072 0-.162.018-.234.018-.127 0-.235.018-.361.036-.036 0-.09 0-.127.018-.036 0-.054 0-.09.018a8.027 8.027 0 0 0-.65.09c-.162.018-.306.054-.469.072-.09.018-.198.036-.288.054-.109.018-.217.054-.343.072-.036.019-.09.019-.127.037-.072.018-.162.036-.234.054-.036 0-.054.018-.09.018-.09.018-.18.036-.253.072-.036.018-.09.018-.126.036-.072.018-.127.036-.199.054-.054.018-.108.036-.144.054-.09.018-.162.054-.235.072-.018 0-.036.019-.054.019a2.41 2.41 0 0 0-.325.126c-.126.036-.234.09-.342.126a.669.669 0 0 0-.199.09c-.072.018-.126.055-.199.073-.108.054-.234.09-.342.144-.199.09-.397.18-.596.289a14.83 14.83 0 0 0-.74.397c-.072.054-.162.09-.234.144-.09.054-.18.108-.289.18-.09.055-.18.109-.253.163-.072.054-.162.108-.234.162l-.217.163c-.18.126-.343.252-.505.379-.072.054-.126.108-.198.162-.109.09-.235.199-.343.289-.09.072-.18.162-.271.234-.072.054-.126.127-.199.18-.216.217-.433.416-.65.65a1.797 1.797 0 0 0-.18.199c-.09.09-.162.18-.234.27-.108.109-.199.235-.289.343-.054.073-.108.127-.162.199-.127.162-.253.343-.38.505l-.162.217c-.054.072-.108.162-.162.234-.054.09-.108.163-.162.253-.055.09-.127.18-.18.289-.055.072-.091.162-.145.234-.145.235-.271.487-.397.722a8.989 8.989 0 0 0-.289.595 1.957 1.957 0 0 0-.144.343c-.018.054-.054.127-.073.199-.036.072-.054.144-.09.198-.054.109-.09.235-.126.343-.036.108-.072.217-.126.325 0 .018-.018.036-.018.054-.037.072-.055.163-.073.235-.018.054-.036.108-.054.144-.018.072-.036.127-.054.199-.018.036-.018.09-.036.126-.018.09-.054.18-.072.253 0 .018-.018.054-.018.09-.018.072-.036.162-.054.234 0 .037-.018.073-.036.127-.018.108-.055.216-.073.343-.018.09-.036.18-.054.288a4.216 4.216 0 0 0-.072.47c-.036.216-.054.432-.09.65 0 .035 0 .053-.018.09 0 .035 0 .072-.018.126-.018.126-.018.234-.036.36 0 .073-.018.163-.018.235C.956 15.068.036 12.722 0 10.232A10.042 10.042 0 0 1 2.779 3.14c.054-.072.126-.126.18-.18l.18-.181A10.123 10.123 0 0 1 10.106 0h.127c2.49.036 4.836.956 6.676 2.617Z" opacity=".3"/></g></g></g><defs><clipPath id="a"><path fill="#fff" d="M0 0h80.842v24H0z"/></clipPath><clipPath id="b"><path fill="#fff" d="M27.79 1.263h53.052V24H27.79z"/></clipPath><clipPath id="c"><path fill="#fff" d="M0 0h20.21v20.21H0z"/></clipPath><clipPath id="d"><path fill="#fff" d="M0 0h20.21v20.21H0z"/></clipPath></defs></svg>
